X:1
T:Title
%%score { ( 1 3 4 ) | ( 2 5 6 7 ) }
L:1/8
M:3/4
K:Bb
V:1 treble nm="Grand Piano"
V:3 treble 
V:4 treble 
V:2 bass 
V:5 bass 
V:6 bass 
V:7 bass 
V:1
 z2 z2[Q:1/4=84] F>F | B4 z2 | [Fd]2 z2 z2 | [EF]4 z2 |[M:2/4] [Ec]4 |[M:1/4] F>F |[M:3/4] B4 z2 | %7
 [Fd]2 z2 z2 | z C z G AB |[M:5/8] c-[Gc-] [Fc]3 |[M:1/4] F>F |[M:3/4] B4 z2 | [Fd]2 z2 z2 | %13
 z A, z ^F [B,G]A |[M:2/4] [DB]4 |[M:1/4] B>B |[M:3/4] [GB]4 z2 | [EG]F d2 d>c | [Ge]4 z2 | %19
[M:2/4] [DB]4 |[M:1/4] d>e |[M:3/4] dc F2 c>d | cB D2 F>G | FE A2 G>A |[M:2/4] GF B2 |[M:1/4] d>e | %26
[M:3/4] dc F2 c>d |[M:7/8] cB f3 e>d | %28
[M:4/4] [Fd]4 z4[Q:1/4=83][Q:1/4=81][Q:1/4=80][Q:1/4=79][Q:1/4=77][Q:1/4=76][Q:1/4=75][Q:1/4=74][Q:1/4=72][Q:1/4=71][Q:1/4=70][Q:1/4=68][Q:1/4=67][Q:1/4=66][Q:1/4=64] | %29
[M:2/4] [DB]4 |] %30
V:2
 z2 z2 E>E | B,,F, z C [DE]>D | B,,[F,B,] [F,B,D]2 D>D | z F, z B, z F, |[M:2/4] z F, F,2 | %5
[M:1/4] E>E |[M:3/4] B,,F, z C [DE]>D | B,,F, F,2 [F,B,]2 | z [G,B,] z[K:treble] =E FG | %9
[M:5/8][K:bass] z B, E3 |[M:1/4] E>E |[M:3/4] z [F,B,] [F,B,]2 [F,B,]2 | %12
 z [F,B,] [F,B,D]2 [F,B,]2 | z2 z C z C |[M:2/4] z D, D,2 |[M:1/4][K:treble] G>G | %16
[M:3/4][K:bass] z [G,B,] z[K:treble] G G,2 | z [F,B,D] [F,B,DF]2 F>E | z F, F,2 [F,A,C]2 | %19
[M:2/4] (3B,F,D, B,,2 |[M:1/4] z2 |[M:3/4] z [A,CE] [A,CE]2 [A,CE]2 | z [F,B,D] [F,B,]2 [F,B,D]2 | %23
 z [A,C] [A,CE]2 [A,CE]2 |[M:2/4] z [F,B,D] [F,B,D]2 |[M:1/4] z2 | %26
[M:3/4] z [F,A,E] [F,A,E]2 [F,A,E]2 |[M:7/8] z [F,B,] [D,F,B,]3[K:treble] G>F | %28
[M:4/4][K:bass] z2 z[K:treble] E- E3/2[K:bass] z/ z2 |[M:2/4] z F, B,2 |] %30
V:3
 x6 | D[B,D] z A c>B | z D F2 F>F | F,[A,C] z G [CA][B,DB] |[M:2/4] z [A,C] [A,C]2 |[M:1/4] x2 | %6
[M:3/4] D[B,D] z A c>B | z [B,D] [B,DF]2 [DB]>[DB] | [=EB]4 z2 |[M:5/8] [CA] z z z2 |[M:1/4] x2 | %11
[M:3/4] DD z [CA] [DEc]>[DB] | z D F2 [DF]>[DF] | [C^F]4 z2 |[M:2/4] z [G,B,] [G,B,]2 |[M:1/4] x2 | %16
[M:3/4] z E z B [EFA][EG] | x6 | z [A,C] z [Fd] [Ec]>[Fd] |[M:2/4] x4 |[M:1/4] x2 |[M:3/4] x6 | %22
 x6 | x6 |[M:2/4] x4 |[M:1/4] x2 |[M:3/4] x6 |[M:7/8] x7 |[M:4/4] z EEc d>B- B2 |[M:2/4] x4 |] %30
V:4
 x6 | z2 [B,D]2 z2 | x6 | z2 [A,C]2 z2 |[M:2/4] x4 |[M:1/4] x2 |[M:3/4] z2 [B,D]2 z2 | x6 | %8
 z2 C2 z2 |[M:5/8] x5 |[M:1/4] x2 |[M:3/4] z2 D2 z2 | x6 | z2 A,2 z2 |[M:2/4] x4 |[M:1/4] x2 | %16
[M:3/4] z2 E2 z2 | x6 | z2 [A,C]2 z2 |[M:2/4] x4 |[M:1/4] x2 |[M:3/4] x6 | x6 | x6 |[M:2/4] x4 | %25
[M:1/4] x2 |[M:3/4] x6 |[M:7/8] x7 |[M:4/4] x8 |[M:2/4] x4 |] %30
V:5
 x6 | z2 F,2 [F,B,]2 | z2 z2 [F,B,]2 | z2 F,2 z2 |[M:2/4] F,,4 |[M:1/4] x2 | %6
[M:3/4] z2 F,2 [F,B,]2 | x6 | z2 [G,B,]2[K:treble] [G,B,C]2 |[M:5/8][K:bass] F,-F,- F,3 | %10
[M:1/4] x2 |[M:3/4] [B,,,B,,]6 | [B,,,B,,]6 | z2 z2 A,2 |[M:2/4] G,,4 |[M:1/4][K:treble] x2 | %16
[M:3/4][K:bass] z2 [G,B,]2[K:treble] z2 | z2 z2 [F,B,D]2 | F,,6 |[M:2/4] x4 |[M:1/4] x2 | %21
[M:3/4] [F,,F,]6 | [B,,,B,,]6 | [F,,F,]6 |[M:2/4] [B,,,B,,]4 |[M:1/4] x2 |[M:3/4] E,6 | %27
[M:7/8] D,2 z z z[K:treble] z2 |[M:4/4][K:bass] z [F,A,] z2[K:treble] F>[K:bass]E- E2 | %29
[M:2/4] B,,4 |] %30
V:6
 x6 | x6 | x6 | F,,4 F,,2 |[M:2/4] x4 |[M:1/4] x2 |[M:3/4] x6 | x6 | [C,,C,]6[K:treble] | %9
[M:5/8][K:bass] x5 |[M:1/4] x2 |[M:3/4] x6 | x6 | [D,,D,]6 |[M:2/4] x4 |[M:1/4][K:treble] x2 | %16
[M:3/4][K:bass] [E,,E,]6[K:treble] | [B,,,B,,]6 | x6 |[M:2/4] x4 |[M:1/4] x2 |[M:3/4] x6 | x6 | %23
 x6 |[M:2/4] x4 |[M:1/4] x2 |[M:3/4] x6 |[M:7/8] x5[K:treble] x2 | %28
[M:4/4][K:bass] z2 [F,A,]6[K:treble][K:bass] |[M:2/4] x4 |] %30
V:7
 x6 | x6 | x6 | x6 |[M:2/4] x4 |[M:1/4] x2 |[M:3/4] x6 | x6 | x3[K:treble] x3 |[M:5/8][K:bass] x5 | %10
[M:1/4] x2 |[M:3/4] x6 | x6 | x6 |[M:2/4] x4 |[M:1/4][K:treble] x2 | %16
[M:3/4][K:bass] x3[K:treble] x3 | x6 | x6 |[M:2/4] x4 |[M:1/4] x2 |[M:3/4] x6 | x6 | x6 | %24
[M:2/4] x4 |[M:1/4] x2 |[M:3/4] x6 |[M:7/8] x5[K:treble] x2 | %28
[M:4/4][K:bass] F,,8[K:treble][K:bass] |[M:2/4] x4 |] %30

